build/documents/WebOutline.svg

<svg xmlns="http://www.w3.org/2000/svg" fill="none" viewBox="0 0 24 24" focusable="false"><path d="M0 0H24V24H0z"/><path fill="#74767B" fill-rule="evenodd" d="M20.65 6.35004C20.65 4.69318 19.3069 3.35004 17.65 3.35004L9.65 3.35004C7.99314 3.35004 6.65 4.69318 6.65 6.35004L6.65 16.35C6.65 18.0069 7.99314 19.35 9.65 19.35L17.65 19.35C19.3069 19.35 20.65 18.0069 20.65 16.35L20.65 6.35004ZM17.65 4.65004L9.65 4.65004C8.71112 4.65004 7.95 5.41115 7.95 6.35004L7.95 16.35C7.95 17.2889 8.71112 18.05 9.65 18.05L17.65 18.05C18.5889 18.05 19.35 17.2889 19.35 16.35L19.35 6.35004C19.35 5.41115 18.5889 4.65004 17.65 4.65004Z"/><path fill="#74767B" d="M4.65 8.70004C4.29101 8.70004 4 8.99105 4 9.35004L4 18.75C4 20.545 5.45507 22 7.25 22L15.65 22C16.009 22 16.3 21.709 16.3 21.35C16.3 20.9911 16.009 20.7 15.65 20.7L7.25 20.7C6.17304 20.7 5.3 19.827 5.3 18.75L5.3 9.35004C5.3 8.99105 5.00898 8.70004 4.65 8.70004Z"/><path fill="#74767B" d="M4.65 8.70004C4.29101 8.70004 4 8.99105 4 9.35004L4 18.75C4 20.545 5.45507 22 7.25 22L15.65 22C16.009 22 16.3 21.709 16.3 21.35C16.3 20.9911 16.009 20.7 15.65 20.7L7.25 20.7C6.17304 20.7 5.3 19.827 5.3 18.75L5.3 9.35004C5.3 8.99105 5.00898 8.70004 4.65 8.70004Z"/><path fill="#74767B" fill-rule="evenodd" d="M13.653 6.42078C16.2511 6.42078 18.3572 8.52695 18.3572 11.125C18.3572 13.7231 16.2511 15.8293 13.653 15.8293C11.0549 15.8293 8.94874 13.7231 8.94874 11.125C8.94874 8.52694 11.0549 6.42078 13.653 6.42078C13.653 6.42078 13.653 6.42078 13.653 6.42078ZM15.2747 14.1189C16.1539 13.6417 16.7993 12.7885 16.9953 11.775L15.7354 11.775C15.6809 12.6583 15.5167 13.4632 15.2747 14.1189ZM12.0313 14.119C11.1521 13.6417 10.5066 12.7885 10.3107 11.775L11.5706 11.775C11.6251 12.6583 11.7893 13.4633 12.0313 14.119ZM12.8734 11.775C12.9355 12.6528 13.1192 13.3973 13.3533 13.921C13.4628 14.1661 13.569 14.3307 13.653 14.4334C13.737 14.3307 13.8432 14.1661 13.9527 13.921C14.1868 13.3973 14.3705 12.6528 14.4326 11.775L12.8734 11.775ZM14.4326 10.475L12.8734 10.475C12.9355 9.59727 13.1192 8.85279 13.3533 8.32903C13.4628 8.08399 13.569 7.91935 13.653 7.81669C13.737 7.91935 13.8432 8.08399 13.9527 8.32903C14.1868 8.85279 14.3705 9.59727 14.4326 10.475ZM15.7354 10.475L16.9953 10.475C16.7993 9.46156 16.1539 8.60836 15.2747 8.13112C15.5167 8.7868 15.6809 9.59174 15.7354 10.475ZM12.0313 8.13111C11.7893 8.78679 11.6251 9.59173 11.5706 10.475L10.3107 10.475C10.5067 9.46155 11.1521 8.60834 12.0313 8.13111Z"/><path fill="#74767B" fill-rule="evenodd" d="M13.653 6.42078C16.2511 6.42078 18.3572 8.52695 18.3572 11.125C18.3572 13.7231 16.2511 15.8293 13.653 15.8293C11.0549 15.8293 8.94874 13.7231 8.94874 11.125C8.94874 8.52694 11.0549 6.42078 13.653 6.42078C13.653 6.42078 13.653 6.42078 13.653 6.42078ZM15.2747 14.1189C16.1539 13.6417 16.7993 12.7885 16.9953 11.775L15.7354 11.775C15.6809 12.6583 15.5167 13.4632 15.2747 14.1189ZM12.0313 14.119C11.1521 13.6417 10.5066 12.7885 10.3107 11.775L11.5706 11.775C11.6251 12.6583 11.7893 13.4633 12.0313 14.119ZM12.8734 11.775C12.9355 12.6528 13.1192 13.3973 13.3533 13.921C13.4628 14.1661 13.569 14.3307 13.653 14.4334C13.737 14.3307 13.8432 14.1661 13.9527 13.921C14.1868 13.3973 14.3705 12.6528 14.4326 11.775L12.8734 11.775ZM14.4326 10.475L12.8734 10.475C12.9355 9.59727 13.1192 8.85279 13.3533 8.32903C13.4628 8.08399 13.569 7.91935 13.653 7.81669C13.737 7.91935 13.8432 8.08399 13.9527 8.32903C14.1868 8.85279 14.3705 9.59727 14.4326 10.475ZM15.7354 10.475L16.9953 10.475C16.7993 9.46156 16.1539 8.60836 15.2747 8.13112C15.5167 8.7868 15.6809 9.59174 15.7354 10.475ZM12.0313 8.13111C11.7893 8.78679 11.6251 9.59173 11.5706 10.475L10.3107 10.475C10.5067 9.46155 11.1521 8.60834 12.0313 8.13111Z"/></svg>

<svg xmlns="http://www.w3.org/2000/svg" fill="none" viewBox="0 0 24 24" focusable="false"><g fill="#74767B"><path fill-rule="evenodd" d="M20.64 6.35c0-1.66-1.34-3-3-3h-8c-1.65 0-3 1.34-3 3v10c0 1.65 1.35 3 3 3h8c1.66 0 3-1.35 3-3zm-3-1.7h-8c-.93 0-1.7.76-1.7 1.7v10c0 .93.77 1.69 1.7 1.69h8c.94 0 1.71-.76 1.71-1.69v-10c0-.94-.77-1.7-1.71-1.7"/><path d="M4.64 8.7c-.35 0-.64.29-.64.65v9.4A3.25 3.25 0 0 0 7.25 22h8.39c.36 0 .65-.3.65-.65 0-.36-.29-.65-.65-.65H7.25c-1.08 0-1.95-.88-1.95-1.95v-9.4c0-.36-.3-.65-.66-.65"/><path fill-rule="evenodd" d="M13.65 6.42c2.6 0 4.7 2.1 4.7 4.7s-2.1 4.7-4.7 4.7-4.71-2.1-4.71-4.7 2.11-4.7 4.71-4.7m1.62 7.69c.88-.47 1.52-1.33 1.72-2.34h-1.26c-.05.88-.22 1.69-.46 2.34m-3.24 0a3.37 3.37 0 0 1-1.72-2.34h1.26c.05.88.21 1.69.46 2.34m.84-2.34c.06.88.24 1.62.48 2.15q.165.36.3.51c.08-.1.19-.27.3-.51.23-.53.42-1.27.48-2.15zm1.56-1.3h-1.56c.06-.88.24-1.62.48-2.15q.165-.36.3-.51c.08.1.19.27.3.51.23.53.42 1.27.48 2.15m1.3 0h1.26c-.2-1.01-.84-1.87-1.72-2.34.24.65.41 1.46.46 2.34m-3.7-2.34c-.25.65-.41 1.46-.46 2.34h-1.26c.19-1.01.84-1.87 1.72-2.34"/></g></svg>
